file/tiffany.svg

<svg clip-rule="evenodd" fill-rule="evenodd" stroke-linejoin="round" stroke-miterlimit="1.41421" viewBox="0 0 560 400" xmlns="http://www.w3.org/2000/svg"><g fill-rule="nonzero" transform="matrix(4.17088 0 0 4.17088 30 169.469)"><path d="m11.704.239.021 3.726-.225.034c-.909-2.254-1.594-3.394-4.36-3.394h-.314v11.995c0 .595.067 1.007.369 1.287.21.192.978.283 1.599.283v.269h-5.861v-.269c.621 0 1.388-.091 1.597-.283.303-.28.37-.692.37-1.287v-11.995h-.315c-2.766 0-3.45 1.14-4.359 3.394l-.226-.034.021-3.726z"/><path d="m15.206 12.738c0 .546-.067.978-.342 1.208-.23.191-.696.244-1.38.244v.249h5.292v-.249c-.685 0-1.151-.053-1.381-.244-.275-.23-.342-.662-.342-1.209v-7.76c0-.547.067-.98.342-1.21.23-.191.696-.242 1.381-.242v-.25h-5.292v.25c.684 0 1.15.051 1.38.242.275.23.342.663.342 1.21v7.76"/><path d="m29.128 3.275h-8.178v.25c.621 0 1.06.051 1.269.243.251.23.311.662.311 1.21v7.76c0 .546-.06.978-.311 1.208-.209.191-.648.244-1.269.244v.249h5.195v-.249c-.685 0-1.196-.053-1.425-.244-.276-.23-.342-.662-.342-1.209v-3.755h.813c.86 0 1.293.143 1.655.419.302.23.54.729.54 1.181h.218v-3.547h-.218c0 .452-.238.97-.54 1.201-.362.275-.795.425-1.655.425h-.813v-5.045h1.018c2.53 0 3.223 1.206 3.603 2.605l.174-.032z"/><path d="m38.976 3.275h-8.178v.25c.622 0 1.061.051 1.27.243.251.23.311.662.311 1.21v7.76c0 .546-.06.978-.311 1.208-.209.192-.648.244-1.27.244v.249h5.196v-.249c-.684 0-1.196-.052-1.426-.244-.275-.23-.343-.662-.343-1.208v-3.755h.815c.86 0 1.293.142 1.655.418.301.23.54.729.54 1.182h.218v-3.548h-.218c0 .453-.239.97-.54 1.201-.362.275-.795.425-1.655.425h-.815v-5.045h1.02c2.53 0 3.221 1.207 3.603 2.605l.173-.032z"/><path d="m50.013 14.195c-.89-.102-1.162-.406-1.565-1.457l-3.65-9.744h-.387l-3.572 9.535c-.481 1.259-.855 1.445-1.934 1.666v.244h3.361v-.244c-.968-.059-1.428-.441-.958-1.666l.782-2.129h3.626l.834 2.184c.401 1.046.008 1.544-1.015 1.611v.244h4.478zm-7.803-4.136 1.669-4.541 1.707 4.541z"/><path d="m61.871 3.275h-3.831v.25c.844.075 1.246.15 1.466.528.252.43.358 1.162.358 2.131v5.36l-6.314-8.269h-3.146v.25c1.172 0 1.739.656 1.739 1.614v6.418c0 .968-.062 1.675-.312 2.105-.217.372-.442.458-1.231.528v.249h3.793v-.249c-.844-.074-1.247-.151-1.467-.528-.251-.43-.357-1.137-.357-2.105v-6.541l7.406 9.52h.315v-8.352c0-.969.06-1.702.311-2.132.222-.377.427-.452 1.27-.527z"/><path d="m73.135 3.275h-3.274l-.002.25c1.018.031 1.379.409 1.015 1.153l-2.236 4.23-2.436-4.299c-.364-.705.037-1.084 1.057-1.084l-.002-.25h-4.615l.002.25c.9.064 1.139.28 1.502.981l2.852 5.104v3.127c0 .547-.065.979-.314 1.209-.211.191-.67.244-1.291.244v.249h5.054v-.249c-.621 0-1.08-.053-1.289-.244-.25-.23-.315-.662-.315-1.209v-3.458l2.543-4.633c.432-.824.85-1.05 1.747-1.121z"/><path d="m88.599 7.659h-4.468l-.002.241c1.11.015 1.687.438 1.268 1.321-.313.66-.674 1.278-1.098 1.858l-3.26-4.178c1.924-.926 2.935-1.87 2.935-3.366 0-1.074-1.128-2.252-2.755-2.252-1.68 0-3.145 1.377-3.145 2.895 0 .987.278 1.687 1.232 3.056-1.904.671-3.544 2.209-3.544 3.982 0 1.999 1.589 3.424 3.709 3.424 1.561 0 2.871-.829 3.945-1.984l1.331 1.783h3.365l-.002-.248c-.604-.009-.8-.063-1.175-.25-.455-.228-.851-.635-1.331-1.206l-1.067-1.367c.619-.815 1.159-1.686 1.715-2.464.427-.599.887-.878 2.345-.99zm-7.309-5.974c1.034 0 1.645.781 1.645 2.031 0 1.128-.899 2.382-2.155 2.862-.945-1.308-1.156-2.142-1.156-2.913 0-1.41.666-1.98 1.666-1.98m-3.649 8.833c0-1.409.654-2.404 1.883-2.983l3.634 4.806c-.853.804-1.822 1.303-2.719 1.303-1.568 0-2.798-1.239-2.798-3.126"/><path d="m104.064 10.224-.226.017c-.523 2.498-2.362 4.004-4.048 4.004-3.221 0-5.286-2.861-5.286-6.867 0-4.005 1.799-6.947 4.985-6.947 1.846 0 3.725 1.459 4.259 3.825l.225-.032-.115-4.224h-.243c-.074.621-.465.973-1.09.733-.919-.352-1.947-.693-3.024-.693-4.028 0-7.453 3.294-7.453 7.338 0 4.045 3.392 7.261 7.453 7.261 1.743 0 3.175-.374 4.364-1.204z"/><path d="m105.816 8.858c0 3.161 2.473 5.738 5.587 5.738 3.112 0 5.586-2.577 5.586-5.738 0-3.163-2.474-5.739-5.586-5.739-3.114 0-5.587 2.576-5.587 5.739zm9.002 0c0 3.148-1.164 5.418-3.415 5.418-2.253 0-3.417-2.27-3.417-5.418 0-3.149 1.164-5.419 3.417-5.419 2.251 0 3.415 2.27 3.415 5.419"/><path d="m118.748 12.286c.631 0 1.131.51 1.131 1.155s-.5 1.155-1.131 1.155c-.632 0-1.13-.51-1.13-1.155s.498-1.155 1.13-1.155"/></g></svg>

<?xml version="1.0" encoding="UTF-8" standalone="no"?>
<!DOCTYPE svg PUBLIC "-//W3C//DTD SVG 1.1//EN" "http://www.w3.org/Graphics/SVG/1.1/DTD/svg11.dtd">
<svg width="100%" height="100%" viewBox="0 0 560 400" version="1.1" xmlns="http://www.w3.org/2000/svg" xmlns:xlink="http://www.w3.org/1999/xlink" xml:space="preserve" xmlns:serif="http://www.serif.com/" style="fill-rule:evenodd;clip-rule:evenodd;stroke-linejoin:round;stroke-miterlimit:1.41421;">
    <g transform="matrix(4.17088,0,0,4.17088,30,169.469)">
        <path d="M11.704,0.239L11.725,3.965L11.5,3.999C10.591,1.745 9.906,0.605 7.14,0.605L6.826,0.605L6.826,12.6C6.826,13.195 6.893,13.607 7.195,13.887C7.405,14.079 8.173,14.17 8.794,14.17L8.794,14.439L2.933,14.439L2.933,14.17C3.554,14.17 4.321,14.079 4.53,13.887C4.833,13.607 4.9,13.195 4.9,12.6L4.9,0.605L4.585,0.605C1.819,0.605 1.135,1.745 0.226,3.999L0,3.965L0.021,0.239L11.704,0.239" style="fill-rule:nonzero;"/>
        <path d="M15.206,12.738C15.206,13.284 15.139,13.716 14.864,13.946C14.634,14.137 14.168,14.19 13.484,14.19L13.484,14.439L18.776,14.439L18.776,14.19C18.091,14.19 17.625,14.137 17.395,13.946C17.12,13.716 17.053,13.284 17.053,12.737L17.053,4.977C17.053,4.43 17.12,3.997 17.395,3.767C17.625,3.576 18.091,3.525 18.776,3.525L18.776,3.275L13.484,3.275L13.484,3.525C14.168,3.525 14.634,3.576 14.864,3.767C15.139,3.997 15.206,4.43 15.206,4.977L15.206,12.737" style="fill-rule:nonzero;"/>
        <path d="M29.128,3.275L20.95,3.275L20.95,3.525C21.571,3.525 22.01,3.576 22.219,3.768C22.47,3.998 22.53,4.43 22.53,4.978L22.53,12.738C22.53,13.284 22.47,13.716 22.219,13.946C22.01,14.137 21.571,14.19 20.95,14.19L20.95,14.439L26.145,14.439L26.145,14.19C25.46,14.19 24.949,14.137 24.72,13.946C24.444,13.716 24.378,13.284 24.378,12.737L24.378,8.982L25.191,8.982C26.051,8.982 26.484,9.125 26.846,9.401C27.148,9.631 27.386,10.13 27.386,10.582L27.604,10.582L27.604,7.035L27.386,7.035C27.386,7.487 27.148,8.005 26.846,8.236C26.484,8.511 26.051,8.661 25.191,8.661L24.378,8.661L24.378,3.616L25.396,3.616C27.926,3.616 28.619,4.822 28.999,6.221L29.173,6.189L29.128,3.275" style="fill-rule:nonzero;"/>
        <path d="M38.976,3.275L30.798,3.275L30.798,3.525C31.42,3.525 31.859,3.576 32.068,3.768C32.319,3.998 32.379,4.43 32.379,4.978L32.379,12.738C32.379,13.284 32.319,13.716 32.068,13.946C31.859,14.138 31.42,14.19 30.798,14.19L30.798,14.439L35.994,14.439L35.994,14.19C35.31,14.19 34.798,14.138 34.568,13.946C34.293,13.716 34.225,13.284 34.225,12.738L34.225,8.983L35.04,8.983C35.9,8.983 36.333,9.125 36.695,9.401C36.996,9.631 37.235,10.13 37.235,10.583L37.453,10.583L37.453,7.035L37.235,7.035C37.235,7.488 36.996,8.005 36.695,8.236C36.333,8.511 35.9,8.661 35.04,8.661L34.225,8.661L34.225,3.616L35.245,3.616C37.775,3.616 38.466,4.823 38.848,6.221L39.021,6.189L38.976,3.275" style="fill-rule:nonzero;"/>
        <path d="M50.013,14.195C49.123,14.093 48.851,13.789 48.448,12.738L44.798,2.994L44.411,2.994L40.839,12.529C40.358,13.788 39.984,13.974 38.905,14.195L38.905,14.439L42.266,14.439L42.266,14.195C41.298,14.136 40.838,13.754 41.308,12.529L42.09,10.4L45.716,10.4L46.55,12.584C46.951,13.63 46.558,14.128 45.535,14.195L45.535,14.439L50.013,14.439L50.013,14.195ZM42.21,10.059L43.879,5.518L45.586,10.059L42.21,10.059" style="fill-rule:nonzero;"/>
        <path d="M61.871,3.275L58.04,3.275L58.04,3.525C58.884,3.6 59.286,3.675 59.506,4.053C59.758,4.483 59.864,5.215 59.864,6.184L59.864,11.544L53.55,3.275L50.404,3.275L50.404,3.525C51.576,3.525 52.143,4.181 52.143,5.139L52.143,11.557C52.143,12.525 52.081,13.232 51.831,13.662C51.614,14.034 51.389,14.12 50.6,14.19L50.6,14.439L54.393,14.439L54.393,14.19C53.549,14.116 53.146,14.039 52.926,13.662C52.675,13.232 52.569,12.525 52.569,11.557L52.569,5.016L59.975,14.536L60.29,14.536L60.29,6.184C60.29,5.215 60.35,4.482 60.601,4.052C60.823,3.675 61.028,3.6 61.871,3.525L61.871,3.275" style="fill-rule:nonzero;"/>
        <path d="M73.135,3.275L69.861,3.275L69.859,3.525C70.877,3.556 71.238,3.934 70.874,4.678L68.638,8.908L66.202,4.609C65.838,3.904 66.239,3.525 67.259,3.525L67.257,3.275L62.642,3.275L62.644,3.525C63.544,3.589 63.783,3.805 64.146,4.506L66.998,9.61L66.998,12.737C66.998,13.284 66.933,13.716 66.684,13.946C66.473,14.137 66.014,14.19 65.393,14.19L65.393,14.439L70.447,14.439L70.447,14.19C69.826,14.19 69.367,14.137 69.158,13.946C68.908,13.716 68.843,13.284 68.843,12.737L68.843,9.279L71.386,4.646C71.818,3.822 72.236,3.596 73.133,3.525L73.135,3.275" style="fill-rule:nonzero;"/>
        <path d="M88.599,7.659L84.131,7.659L84.129,7.9C85.239,7.915 85.816,8.338 85.397,9.221C85.084,9.881 84.723,10.499 84.299,11.079L81.039,6.901C82.963,5.975 83.974,5.031 83.974,3.535C83.974,2.461 82.846,1.283 81.219,1.283C79.539,1.283 78.074,2.66 78.074,4.178C78.074,5.165 78.352,5.865 79.306,7.234C77.402,7.905 75.762,9.443 75.762,11.216C75.762,13.215 77.351,14.64 79.471,14.64C81.032,14.64 82.342,13.811 83.416,12.656L84.747,14.439L88.112,14.439L88.11,14.191C87.506,14.182 87.31,14.128 86.935,13.941C86.48,13.713 86.084,13.306 85.604,12.735L84.537,11.368C85.156,10.553 85.696,9.682 86.252,8.904C86.679,8.305 87.139,8.026 88.597,7.914L88.599,7.659L88.599,7.659ZM81.29,1.685C82.324,1.685 82.935,2.466 82.935,3.716C82.935,4.844 82.036,6.098 80.78,6.578C79.835,5.27 79.624,4.436 79.624,3.665C79.624,2.255 80.29,1.685 81.29,1.685M77.641,10.518C77.641,9.109 78.295,8.114 79.524,7.535L83.158,12.341C82.305,13.145 81.336,13.644 80.439,13.644C78.871,13.644 77.641,12.405 77.641,10.518" style="fill-rule:nonzero;"/>
        <path d="M104.064,10.224L103.838,10.241C103.315,12.739 101.476,14.245 99.79,14.245C96.569,14.245 94.504,11.384 94.504,7.378C94.504,3.373 96.303,0.431 99.489,0.431C101.335,0.431 103.214,1.89 103.748,4.256L103.973,4.224L103.858,0L103.615,0C103.541,0.621 103.15,0.973 102.525,0.733C101.606,0.381 100.578,0.04 99.501,0.04C95.473,0.04 92.048,3.334 92.048,7.378C92.048,11.423 95.44,14.639 99.501,14.639C101.244,14.639 102.676,14.265 103.865,13.435L104.064,10.224" style="fill-rule:nonzero;"/>
        <path d="M105.816,8.858C105.816,12.019 108.289,14.596 111.403,14.596C114.515,14.596 116.989,12.019 116.989,8.858C116.989,5.695 114.515,3.119 111.403,3.119C108.289,3.119 105.816,5.695 105.816,8.858ZM114.818,8.858C114.818,12.006 113.654,14.276 111.403,14.276C109.15,14.276 107.986,12.006 107.986,8.858C107.986,5.709 109.15,3.439 111.403,3.439C113.654,3.439 114.818,5.709 114.818,8.858" style="fill-rule:nonzero;"/>
        <path d="M118.748,12.286C119.379,12.286 119.879,12.796 119.879,13.441C119.879,14.086 119.379,14.596 118.748,14.596C118.116,14.596 117.618,14.086 117.618,13.441C117.618,12.796 118.116,12.286 118.748,12.286" style="fill-rule:nonzero;"/>
    </g>
</svg>
